X: 16352
T: Gullane, The
R: polka
M: 2/4
K: Dmajor
|:Ad BA|DF FE/D/|CE GE|BA FG|
Ad BA|DF FE/D/|CE BA|1 D2 D2:|2 D2 DE||
|:F2 GF/G/|BA FD|AB/A/ GE|BA FD|
F/E/D GE|BA FD|AB/A/ GE|ED D2:|

